public/images/solvay.svg

<svg width="149" height="89" viewBox="0 0 149 89" fill="none" xmlns="http://www.w3.org/2000/svg">
<g clip-path="url(#clip0_129_6790)">
<path d="M83.346 49.2641C82.765 50.6628 82.007 50.9126 80.9962 50.9126C79.9855 50.9126 79.2274 50.6628 78.6464 49.2641L73.921 38.1729H77.003L79.6054 44.5939C80.2362 46.1421 80.7176 47.4424 81.0201 48.4162C81.3484 47.4424 81.8279 46.0929 82.4347 44.5939L85.0372 38.1729H88.0694L83.344 49.2641H83.346Z" fill="black"/>
<path d="M96.5062 39.5714C95.8995 38.1727 95.1675 37.9229 94.1568 37.9229C93.1461 37.9229 92.4377 38.1471 91.8068 39.5714L86.956 50.6626H89.9625L90.8716 48.4141H97.4158L98.3249 50.6626H101.357L96.5062 39.5714ZM91.8325 46.0672L92.6922 43.9937C93.3231 42.4691 93.8302 41.1963 94.1587 40.2461C94.4868 41.1963 94.9924 42.4947 95.5991 43.9937L96.4584 46.0672H91.8344H91.8325Z" fill="black"/>
<path d="M108.13 49.0142V50.6628H105.225V49.0142C105.225 47.8142 105.275 47.5644 104.667 46.5906L99.387 38.1729H102.672L105.678 43.1204C106.158 43.8955 106.463 44.4188 106.739 45.0188C106.992 44.4188 107.294 43.9191 107.776 43.1204L110.808 38.1729H113.965L108.685 46.5926C108.078 47.5664 108.13 47.8162 108.13 49.0162" fill="black"/>
<path d="M62.0266 44.3675C62.0266 48.54 59.4738 50.9124 55.1284 50.9124C51.0098 50.9124 48.3576 48.7387 48.3576 44.393C48.3576 40.0475 51.1611 37.9229 55.2538 37.9229C59.3465 37.9229 62.0246 40.2461 62.0246 44.3675M59.0679 44.4167C59.0679 41.6685 57.5777 40.3189 55.1523 40.3189C52.7269 40.3189 51.3122 41.694 51.3122 44.3419C51.3122 47.2397 52.8781 48.5144 55.2796 48.5144C57.6811 48.5144 59.07 47.0154 59.07 44.4167" fill="black"/>
<path d="M74.7861 48.2667V50.6648H67.9396C65.8684 50.6648 64.7045 49.5906 64.7045 47.7415V38.1729H67.5855V48.2667H74.7861Z" fill="black"/>
<path d="M40.5727 50.9144C38.3503 50.9144 36.9097 50.7393 35.318 50.4147V47.9911C36.6829 48.3157 37.9961 48.5655 40.5727 48.5655C42.7971 48.5655 43.4537 48.0914 43.4537 47.216C43.4537 46.3918 42.8469 45.9668 40.4474 45.5675C36.1756 44.8435 35.0395 43.6436 35.0395 41.6193C35.0395 39.172 37.0351 37.9229 40.5986 37.9229C42.0629 37.9229 43.8576 38.0724 45.4991 38.4481V40.8717C43.605 40.4468 42.0629 40.2717 40.5966 40.2717C38.7263 40.2717 37.9941 40.5727 37.9941 41.4462C37.9941 42.1957 38.4995 42.6462 41.2273 43.1459C45.4971 43.9209 46.4064 45.1445 46.4064 47.0174C46.4064 49.1911 44.7132 50.9144 40.5707 50.9144" fill="black"/>
</g>
<defs>
<clipPath id="clip0_129_6790">
<rect width="78.9238" height="13.154" fill="white" transform="translate(35.0381 37.9229)"/>
</clipPath>
</defs>
</svg>

<svg xmlns="http://www.w3.org/2000/svg" fill="none" viewBox="0 0 149 89">
  <g fill="black" clip-path="url(#a)">
    <path
      d="M83.347 49.265c-.581 1.399-1.34 1.649-2.35 1.649s-1.769-.25-2.35-1.649l-4.725-11.091h3.082l2.602 6.42c.631 1.55 1.113 2.85 1.415 3.823.328-.974.808-2.323 1.415-3.822l2.602-6.421h3.032l-4.725 11.091zm13.16-9.693c-.606-1.398-1.338-1.648-2.35-1.648-1.01 0-1.718.224-2.35 1.648l-4.85 11.092h3.007l.909-2.249h6.544l.909 2.249h3.032zm-4.674 6.496.86-2.073c.631-1.525 1.138-2.798 1.467-3.748.328.95.833 2.249 1.44 3.748l.86 2.073zm16.297 2.947v1.649h-2.904v-1.649c0-1.2.049-1.45-.558-2.423l-5.28-8.418h3.285l3.006 4.947c.48.776.784 1.299 1.06 1.899.253-.6.556-1.1 1.037-1.899l3.032-4.947h3.158l-5.281 8.42c-.606.973-.555 1.223-.555 2.423m-46.103-4.649c0 4.173-2.552 6.545-6.898 6.545-4.118 0-6.77-2.173-6.77-6.519s2.803-6.47 6.895-6.47c4.093 0 6.771 2.323 6.771 6.444m-2.956.05c0-2.749-1.49-4.098-3.916-4.098-2.425 0-3.84 1.375-3.84 4.023 0 2.898 1.566 4.172 3.967 4.172 2.402 0 3.79-1.499 3.79-4.097m15.716 3.85v2.398H67.94c-2.07 0-3.235-1.074-3.235-2.924v-9.568h2.881v10.094zm-34.213 2.647c-2.222 0-3.663-.175-5.254-.5v-2.423c1.364.325 2.678.575 5.254.575 2.225 0 2.881-.475 2.881-1.35 0-.824-.607-1.25-3.006-1.648-4.272-.725-5.408-1.925-5.408-3.949 0-2.447 1.996-3.696 5.56-3.696 1.464 0 3.258.15 4.9.525v2.424c-1.895-.425-3.436-.6-4.903-.6-1.87 0-2.602.3-2.602 1.174 0 .75.505 1.2 3.233 1.7 4.27.775 5.179 1.999 5.179 3.871 0 2.174-1.693 3.897-5.836 3.897"
    />
  </g>
  <defs>
    <clipPath id="a">
      <path fill="white" d="M35.04 37.924h78.923v13.154H35.04z" />
    </clipPath>
  </defs>
</svg>
